X:081 
T:Humors of Carrigaholt (reel) 
B:CRE3.133 (PlÃÂÃÂÃÂÃÂ©arÃÂÃÂÃÂÃÂ¡ca Charraig an Chabhaltaigh)
F:file ID: cre.3/081hu_carr
N:I have a feeling that Part A of this tune is modal, but the 
source doesn't show any C naturals. I've added a modal version 
of Part A so you can try both.
R:reel
M:C
L:1/8
Q:180
K:D
dcAF GBAG|F2DE FGAB|cAAF G2FG|Add2 defe|
dcAF GBAG|F2DE FGAB|cBAF G2FG|Add2 d3e||
fdde fdgf|edcd efge|fdd2 fdgf|edcd e3g|
fdd2 fdgf|edcd efge|agfa gfec|dfec d4||

%%%

